X:1
T:Truth, 66.86.86
T:Truth, 66.86.86
T:Emily Josephine Troup (1853-1912) 
T:Public Domain Courtesy of the Cyber Hymnal™
C:Emily Josephine Troup (1853-1912)
Z:Public Domain
Z:Courtesy of the Cyber Hymnal™
%%score ( 1 2 ) ( 3 4 )
L:1/8
Q:1/4=110
M:4/4
K:Eb
V:1 treble 
V:2 treble 
V:3 bass 
V:4 bass 
V:1
 [EG]2 | [B,F]2 [B,E]2 [DF]2 [EG]2 | B6 [EA]2 | [EG]2 [B,E]2 [B,D]2 [B,F]2 | [B,E]4 z2 [EB]2 | %5
 [DA]2 [EG]2 [EB]2 [Gc]2 | [^Fd]3 [Fc] [GB]2 [^CG]2 | [DF]2 [DG]2 [E=A]2 [Ec]2 | [DB]4 z2 [Ee]2 | %9
 [Fd]2 [Fc]2 [FB]2 [Dc]2 | [EB]2 [EG]2 E2 E2 | [B,E]2 [EA]2 [DG]2- [DG][DF] | E4 z2 |] %13
V:2
 x2 | x8 | (G4 F2) x2 | x8 | x8 | x8 | x8 | x8 | x8 | x8 | x4 E2 E2 | x8 | E4 x2 |] %13
V:3
 [E,B,]2 | [E,A,]2 [E,G,]2 [E,A,]2 [E,B,]2 | (E4 D2) [E,C]2 | [E,B,]2 [G,,G,]2 [B,,F,]2 [B,,A,]2 | %4
 [E,G,]4 z2 [G,B,]2 | [F,B,]2 [E,B,]2 [G,B,]2 [E,G,]2 | [D,=A,]3 [D,D] [G,D]2 [=E,B,]2 | %7
 [F,B,]2 [F,B,]2 [F,C]2 [F,=A,]2 | B,4 z2 [G,B,]2 | [F,A,]2 [E,A,]2 [D,B,]2 [B,,A,]2 | %10
 [B,,G,]2 [=B,,G,]2 [C,G,]2 [_C,A,]2 | [B,,G,]2 [B,,C]2 [B,,B,]3 [B,,A,] | [E,G,]4 z2 |] %13
V:4
 x2 | x8 | E,6 x2 | x8 | x8 | x8 | x8 | x8 | B,4 x4 | x8 | x8 | x8 | x6 |] %13

